X: 1
T: Bonnie Gallowa
M: C|
L: 1/4
Q: 1/4=104
K: G
D|B>FAG|E<GD2|D>EGB|A>BAD|
B>FAG|E<GD2|D>EGB|A>GG2|
d>dBG|e>Gd2|d>dBG|F/E/F/G/AD|
B>FAG|E<GD2|D>EGB|A>GG|]
